X:87
T:Foul Weather Call
R:Polka
O:England
M:4/4
L:1/8
K:D
a2|:gfed e2a2|gfed dcBA|d2A2Bcdf|g2f2e4|
|gfed e2a2|gfed dcBA|d3A Bcdg|1 f2e2d2a2:|2 f2e2d2A2|
|:Bcded2A2|Bcde dcBA|d2A2BcdB|g2f2e2a2|
|gfed e2a2|gfed dcBA|1d3A BcdB|g2f2e2A :|2 d3A BcdG|F2E2D2a2|
